X:1
T:For the Gloria Dei Schola Gradual for the Dedication of a Church
T:Locus Iste
T:Anton Bruckner 1824-1896
C:Anton Bruckner
%%score [ 1 ( 2 3 ) ( 4 5 ) 6 ]
L:1/8
Q:1/4=110
M:4/4
K:C
V:1 treble nm="Soprano" snm="S."
V:2 treble nm="Alto" snm="A."
V:3 treble 
V:4 treble-8 nm="Tenor" snm="T."
V:5 treble-8 
V:6 bass nm="Bass" snm="B."
V:1
!p!"^Allegro moderato" c6 B2 | A4 G2 z2 | z2 G2 A2 E2 |!>(! G3 G F2!>)! z2 |!mf! d6 c2 | c4 B2 z2 | %6
w: Lo- cus|i- ste|a De- o|fa- ctus est,|lo- cus|i- ste|
 z2!f! d2 e2 g2 | f3 f e2 z2 | z2!p! f2 !tenuto!f2 e2 | z2 F4 E2 | D6 C2 | B,2 z2 z4 | %12
w: a De- o|fa- ctus est,|a De- o,|De- o|fa- ctus|est|
 z2!f! D2 D2 D2 | D3 E (F2 _B2) | d6 e2 | !tenuto!e2 A2 z4 | z2!ff! E2 E2 E2 | E3 ^F (G2 c2) | %18
w: in- æ- sti-|ma- bi- le _|sa- cra-|men- tum,|in- æ- sti-|ma- bi- le _|
 e6 ^f2 | !tenuto!^f2 B2 z4 | z8 |!pp! ^F2 F2 F2 F2 | G>G G2 G2 z2 | E2 E2 E2 E2 | %24
w: sa- cra-|men- tum||ir- re- pre- hen-|si- bi- lis est,|ir- re- pre- hen-|
"^cresc."!<(! =F>F F2 F2 z2 |!p! F4 E4!<)! |!mf! A6 G2 | F3 F E4 | (E2 D2) z4 |!p! c6 B2 | %30
w: si- bi- lis est,|ir- re-|pre- hen-|si- bi- lis|est. _|Lo- cus|
 A4 G2 z2 | z2 G2 A2 E2 |!>(! G3 G F2!>)! z2 |!mf! d6 c2 | c4 B2 z2 | z2!f! d2 e2 g2 | %36
w: i- ste|a De- o|fa- ctus est,|lo- cus|i- ste|a De- o|
 =f3 f e2 z2 | z2!p! f2 f2 e2 | z2 F4 E2 | D6"^cresc."!<(! E2 | F4!f! (^F4!<)! | ^F4) G4 | z8 | %43
w: fa- ctus est,|a De- o,|De- o,|De- *|­- *|­ o,||
 z2!pp!"^Text: \n              Locus iste a Deo factus est, inaestimabile sacramentum, irreprehensibilis est.\n\nTranslation:\n This place was made by God, a priceless sacrament; it is without reproach.\n" G2 =F2 E2 | %44
w: a De- o,|
 F4 D4 | D8- | D4 D4 | E6 z2 |] %48
w: De- o|fa-|* ctus|est.|
V:2
!p!!p! x8 | x8 | x8 |!>(! x8!>)! |!mf!!mf! x8 | x8 | x8 | x8 | x8 | x8 | x8 | x8 | x8 | x8 | x8 | %15
 x8 | x8 | x8 | x8 | x8 | z8 |!pp!!pp! x8 | x8 | x8 |"^cresc."!<(! x8 |!p! x8!<)! |!mf!!mf! x8 | %27
 x8 | x8 |!p!!p! x8 | x8 | x8 |!>(! x8!>)! |!mf!!mf! x8 | x8 | x8 | x8 | x8 | x8 | x8 | %40
!<(!!<(!!<(!!<(!!<(!!<(!!<(!!<(!!<(!!<(!!<(!!<(! x8!<)!!<)!!<)!!<)!!<)!!<)! | x8 | z8 | x8 | x8 | %45
 x8 | x8 | x8 |] %48
V:3
 E6 E2 | E4 E2 z2 | z2 E2 E2 E2 | D3 D D2 z2 | ^F6 F2 | ^F4 G2 z2 | z2!f! G2 G2 G2 | G3 G G2 z2 | %8
w: Lo- cus|i- ste|a De- o|fa- ctus est,|lo- cus|i- ste|a De- o|fa- ctus est,|
 z2!p! G2 !tenuto!G2 G2 | z2 D4 C2 | B,4 G,4 | G,2 z2 z4 | z2!f! D2 D2 D2 | D3 D (D2 F2) | F6 G2 | %15
w: a De- o,|De- o|fa- ctus|est|in- æ- sti-|ma- bi- le _|sa- cra-|
 !tenuto!A2 E2 z4 | z2!ff! E2 E2 E2 | E3 E (E2 G2) | G6 A2 | !tenuto!B2 ^F2 z4 | x8 | %21
w: men- tum,|in- æ- sti-|ma- bi- le _|sa- cra-|men- tum||
 E2 E2 ^D2 D2 | D>D D2 D2 z2 | D2 D2 ^C2 C2 | =C>C C2 C2 z2 | =B,4 C4 | C6 C2 | C2 B,2 C4 | %28
w: ir- re- pre- hen-|si- bi- lis est,|ir- re- pre- hen-|si- bi- lis est,|ir- re-|pre- hen-|si- bi- lis|
 (C2 B,2) z4 | E6 E2 | E4 E2 z2 | z2 E2 E2 E2 | D3 D D2 z2 | ^F6 F2 | ^F4 G2 z2 | z2!f! G2 G2 G2 | %36
w: est. _|Lo- cus|i- ste|a De- o|fa- ctus est,|lo- cus|i- ste|a De- o|
 G3 G G2 z2 | z2!p! G2 G2 G2 | z2 D4 C2 | C2 =B,2"^cresc." (_B,4 | B,2) A,2!f! C4- | C4 B,4 | x8 | %43
w: fa- ctus est,|a De- o,|De- o,|De- * *|­- * *|­ o,||
 z2!pp! C2 B,2 C2 | C4 C4 | (C8 | B,4) B,4 | C6 z2 |] %48
w: a De- o,|De- o|fa-|* ctus|est.|
V:4
!p!!p! x8 | x8 | x8 | x8 |!mf!!mf! x8 | x8 | x8 | x8 | x8 | x8 | x8 | x8 | x8 | x8 | x8 | x8 | x8 | %17
 x8 | x8 | x8 |!pp! x8 | x8 | x8 | x8 |"^cresc." x8 | x8 |!mf! x8 | x8 | x8 |!p!!p! x8 | x8 | x8 | %32
 x8 |!mf!!mf! x8 | x8 | x8 | x8 | x8 | x8 | x8"^cresc." | x8 | x8 | z8 | x8 | x8 | x8 | x8 | x8 |] %48
V:5
 G6 G2 | c4 c2 z2 | z2 c2 c2 c2 | A3 A A2 z2 | A6 d2 | d4 d2 z2 | z2!f! B2 c2 d2 | d3 d c2 z2 | %8
w: Lo- cus|i- ste|a De- o|fa- ctus est,|lo- cus|i- ste|a De- o|fa- ctus est,|
 z2!p! d2 !tenuto!d2 c2 | z2 G4 G2 | F4 E4 | D2 z2 z4 | z2!f! D2 _B2 c2 | d3 d d4 | d6 d2 | %15
w: a De- o,|De- o|fa- ctus|est|in- æ- sti-|ma- bi- le|sa- cra-|
 !tenuto!d2 ^c2 z4 | z2!ff! E2 =c2 d2 | e3 e e4 | e6 e2 | !tenuto!e2 ^d2 z4 | c2 c2 c2 c2 | %21
w: men- tum,|in- æ- sti-|ma- bi- le|sa- cra-|men- tum|ir- re- pre- hen-|
 B>B B2 B2 z2 | _B2 B2 B2 B2 | A>A A2 A2 z2 | _A2 A2 A2 A2 | G>G G2 G2 z2 | F2 F2 E2 E2 | %27
w: si- bi- lis est,|ir- re- pre- hen-|si- bi- lis est,|ir- re- pre- hen-|si- bi- lis est,|ir- re- pre- hen-|
 D3 D (E2 C2) | G4 z4 | G6 G2 | c4 c2 z2 | z2 c2 c2 c2 | A3 A A2 z2 | A6 d2 | d4 d2 z2 | %35
w: si- bi- lis _|est.|Lo- cus|i- ste|a De- o|fa- ctus est,|lo- cus|i- ste|
 z2!f! B2 c2 d2 | d3 d c2 z2 | z2!p! d2 d2 c2 | z2 G4 G2 | G8 | F4!f! A4- | A4 G4 | x8 | %43
w: a De- o|fa- ctus est,|a De- o,|De- o,|De-|­- *|­ o,||
 z2!pp! G2 G2 G2 | A4 A4 | G8- | G4 G4 | G6 z2 |] %48
w: a De- o,|De- o|fa-|* ctus|est.|
V:6
!p! C,6 C,2 | C,4 C,2 C,2 | C,6 C,2 | D,3 D, D,2 z2 |!mf! D,6 D,2 | G,,4 G,,2!f! G,2 | %6
w: Lo- cus|i- ste a|De- o|fa- ctus est,|lo- cus|i- ste a|
 (F,4 E,2) B,,2 | C,3 C, C,2!p! C,2 | B,,4 C,4 | B,,4 C,4 | G,,4 G,,4 | G,,2 G,,2!f! G,,2 A,,2 | %12
w: De- * o|fa- ctus est, a|De- o,|De- o|fa- ctus|est in- æ- sti-|
 _B,,3 D, (G,2 A,2) | _B,6 B,2 | (_B,4 _B,,4) | A,,2!ff! A,,2 A,,2 =B,,2 | =C,3 E, (A,2 B,2) | %17
w: ma- bi- le _|sa- cra-|men- *|tum, in- æ- sti-|ma- bi- le _|
 C6 C2 | (C4 C,4) | B,,4 z4 | z8 | z8 | z8 | z8 | z8 | z8 | z8 | z8 | z8 |!p! C,6 C,2 | %30
w: sa- cra-|men- *|tum||||||||||Lo- cus|
 C,4 C,2 C,2 | C,6 C,2 | D,3 D, D,2 z2 |!mf! D,6 D,2 | G,,4 G,,2!f! G,2 | (=F,4 E,2) B,,2 | %36
w: i- ste a|De- o|fa- ctus est,|lo- cus|i- ste a|De- * o|
 C,3 C, C,2!p! C,2 | B,,4 C,4 | B,,4 C,4 | G,,4"^cresc." G,2 ^C,2 | D,6!f! ^D,2 | E,4 E,4 | z8 | %43
w: fa- ctus est, a|De- o,|De- o,|De- * *|­- *|­ o,||
 z2!pp! E,2 D,2 C,2 | F,,4 ^F,,4 | G,,8- | G,,4 G,,4 | C,6 z2 |] %48
w: a De- o,|De- o|fa-|* ctus|est.|

